src/symbolic/status/weather-snow-symbolic.svg

<svg xmlns="http://www.w3.org/2000/svg" width="16" height="16"><path d="M8 0C5.93 0 4.17 1.27 3.41 3.06 1.48 3.35 0 4.99 0 7c0 2.21 1.79 4 4 4h1.176A3 3 0 0 1 8 9a3 3 0 0 1 2.826 2H12.5c1.93 0 3.5-1.57 3.5-3.5 0-1.8-1.35-3.27-3.09-3.47C12.45 1.74 10.43 0 8 0zM5 14a2 2 0 0 1-2 2 2 2 0 0 1-2-2 2 2 0 0 1 2-2 2 2 0 0 1 2 2z" fill="#444"/><path d="M10 12a2 2 0 0 1-2 2 2 2 0 0 1-2-2 2 2 0 0 1 2-2 2 2 0 0 1 2 2zM15 14a2 2 0 0 1-2 2 2 2 0 0 1-2-2 2 2 0 0 1 2-2 2 2 0 0 1 2 2z" fill="#444"/></svg>

<svg xmlns="http://www.w3.org/2000/svg" width="16" height="16" version="1.1">
 <path style="fill:#444444" d="M 8 0 C 5.93 0 4.1702 1.2705 3.4102 3.0605 C 1.4802 3.3505 0 4.99 0 7 C 0 9.21 1.79 11 4 11 L 5.1758 11 A 3 3 0 0 1 8 9 A 3 3 0 0 1 10.826 11 L 12.5 11 C 14.43 11 16 9.43 16 7.5 C 16 5.7 14.65 4.2293 12.91 4.0293 C 12.45 1.7393 10.43 -5.9212e-16 8 0 z"/>
 <path style="fill:#444444" d="M 5,14 A 2,2 0 0 1 3,16 2,2 0 0 1 1,14 2,2 0 0 1 3,12 2,2 0 0 1 5,14 Z"/>
 <path style="fill:#444444" d="M 10,12 A 2,2 0 0 1 8,14 2,2 0 0 1 6,12 2,2 0 0 1 8,10 2,2 0 0 1 10,12 Z"/>
 <path style="fill:#444444" d="M 15,14 A 2,2 0 0 1 13,16 2,2 0 0 1 11,14 2,2 0 0 1 13,12 2,2 0 0 1 15,14 Z"/>
</svg>
